images/icon-blacklist.svg

<?xml version="1.0" encoding="UTF-8"?>
<svg width="44px" height="40px" viewBox="0 0 44 40" version="1.1" xmlns="http://www.w3.org/2000/svg" xmlns:xlink="http://www.w3.org/1999/xlink">
    <!-- Generator: Sketch 54.1 (76490) - https://sketchapp.com -->
    <title>Group 24</title>
    <desc>Created with Sketch.</desc>
    <g id="---High-Fidelity" stroke="none" stroke-width="1" fill="none" fill-rule="evenodd">
        <g id="Hifi---Desktop" transform="translate(-318.000000, -2692.000000)" fill="#9EABB2" fill-rule="nonzero">
            <g id="Group-30" transform="translate(165.000000, 2692.000000)">
                <g id="Group-27">
                    <g id="Group-24" transform="translate(153.000000, 0.000000)">
                        <path d="M11.0706329,2.0250468e-13 C8.35232068,2.0250468e-13 6.14042194,2.19172996 6.14042194,4.87552743 L5.96118143,30.1541772 L8.65037975,30.1734177 L8.82970464,4.88540084 C8.82970464,3.67434599 9.8350211,2.68919831 11.0707173,2.68919831 L38.097384,2.68919831 L38.097384,2.0250468e-13 L11.0706329,2.0250468e-13 Z" id="Path"></path>
                        <path d="M38.0972152,-1.45661261e-13 C35.2798312,-1.45661261e-13 32.9876793,2.29206751 32.9876793,5.10953586 L32.9876793,33.4807595 C32.9876793,35.53173 31.3185654,37.2008439 29.2675949,37.2008439 C27.2166245,37.2008439 25.5475105,35.53173 25.5475105,33.4807595 L25.5475105,30.2088608 C25.5475105,29.4661603 24.9455696,28.8642194 24.2028692,28.8642194 L1.34464135,28.8642194 C0.601940928,28.8642194 -3.55271368e-14,29.4661603 -3.55271368e-14,30.2088608 L-3.55271368e-14,33.4807595 C-3.55271368e-14,37.0148523 2.87518987,39.8900422 6.4092827,39.8900422 L6.4092827,37.2008439 C4.3578903,37.2008439 2.68919831,35.53173 2.68919831,33.4807595 L2.68919831,31.5534177 L22.8583122,31.5534177 L22.8583122,33.4806751 C22.8583122,37.0147679 25.7335021,39.8899578 29.2675949,39.8899578 C32.8016878,39.8899578 35.6768776,37.0147679 35.6768776,33.4806751 L35.6768776,12.46 L41.8621097,12.46 C42.6048101,12.46 43.2067511,11.8580591 43.2067511,11.1153586 L43.2067511,5.10945148 C43.2067511,2.29206751 40.9146835,-1.45661261e-13 38.0972152,-1.45661261e-13 Z M40.5175527,9.77080169 L35.676962,9.77080169 L35.676962,5.10945148 C35.676962,3.77468354 36.7629536,2.68919831 38.0972152,2.68919831 C39.4314768,2.68919831 40.5174684,3.77476793 40.5174684,5.10945148 L40.5174684,9.77080169 L40.5175527,9.77080169 Z" id="Shape"></path>
                        <rect id="Rectangle" x="6.14033755" y="37.2007595" width="22.8130802" height="2.68919831"></rect>
                        <path d="M19.9898734,7.4849789 L13.0427004,7.4849789 C12.3,7.4849789 11.6980591,8.08691983 11.6980591,8.82962025 C11.6980591,9.57232068 12.3,10.1742616 13.0427004,10.1742616 L19.9898734,10.1742616 C20.7325738,10.1742616 21.3345148,9.57232068 21.3345148,8.82962025 C21.3345148,8.08691983 20.7324895,7.4849789 19.9898734,7.4849789 Z" id="Path"></path>
                        <path d="M28.0574684,12.8633755 L13.0427004,12.8633755 C12.3,12.8633755 11.6980591,13.4653165 11.6980591,14.2080169 C11.6980591,14.9507173 12.3,15.5526582 13.0427004,15.5526582 L28.0574684,15.5526582 C28.8001688,15.5526582 29.4021097,14.9507173 29.4021097,14.2080169 C29.4021097,13.4653165 28.8001688,12.8633755 28.0574684,12.8633755 Z" id="Path"></path>
                        <path d="M28.0574684,18.2417722 L13.0427004,18.2417722 C12.3,18.2417722 11.6980591,18.8437131 11.6980591,19.5864135 C11.6980591,20.3291139 12.3,20.9310549 13.0427004,20.9310549 L28.0574684,20.9310549 C28.8001688,20.9310549 29.4021097,20.3295359 29.4021097,19.5864135 C29.4021097,18.8437131 28.8001688,18.2417722 28.0574684,18.2417722 Z" id="Path"></path>
                        <path d="M28.0574684,23.6202532 L13.0427004,23.6202532 C12.3,23.6202532 11.6980591,24.2221941 11.6980591,24.9648945 C11.6980591,25.7075949 12.3,26.3095359 13.0427004,26.3095359 L28.0574684,26.3095359 C28.8001688,26.3095359 29.4021097,25.7075949 29.4021097,24.9648945 C29.4021097,24.2221941 28.8001688,23.6202532 28.0574684,23.6202532 Z" id="Path"></path>
                    </g>
                </g>
            </g>
        </g>
    </g>
</svg>

<svg width="44" height="40" xmlns="http://www.w3.org/2000/svg"><g fill="#9EABB2" fill-rule="nonzero"><path d="M11.07 0C8.353 0 6.14 2.192 6.14 4.876l-.179 25.278 2.69.02.179-25.289c0-1.21 1.005-2.196 2.24-2.196h27.027V0H11.071z"/><path d="M38.097 0a5.115 5.115 0 00-5.11 5.11v28.37c0 2.052-1.668 3.72-3.72 3.72a3.725 3.725 0 01-3.72-3.72V30.21c0-.743-.601-1.345-1.344-1.345H1.345C.602 28.864 0 29.466 0 30.21v3.272a6.417 6.417 0 006.41 6.409V37.2a3.724 3.724 0 01-3.72-3.72v-1.927h20.168v1.928a6.417 6.417 0 006.41 6.409 6.417 6.417 0 006.409-6.41V12.46h6.185c.743 0 1.345-.602 1.345-1.345V5.11A5.115 5.115 0 0038.097 0zm2.42 9.77h-4.84V5.11a2.423 2.423 0 012.42-2.42 2.423 2.423 0 012.42 2.42v4.66z"/><path d="M6.14 37.201h22.813v2.689H6.14zM19.99 7.485h-6.947a1.345 1.345 0 100 2.69h6.947a1.345 1.345 0 100-2.69zM28.057 12.863H13.043a1.345 1.345 0 100 2.69h15.014a1.345 1.345 0 100-2.69zM28.057 18.242H13.043a1.345 1.345 0 100 2.69h15.014a1.344 1.344 0 100-2.69zM28.057 23.62H13.043a1.345 1.345 0 100 2.69h15.014a1.345 1.345 0 100-2.69z"/></g></svg>
